X:1
T:Visa från Venjan
R:Visa
O:Venjan, Dalarna
N:Från Spillefolk.
N:Länk till Youtube med säckpipa och här med Orsa Spelmän.
M:3/4
L:1/16
Q:1/4=110
K:G
D4|:E8D4|E8D4|G4G4F4|G8B4|d8c4|B6 A2G4| A8B4|1G8D4:|2G8B4]|
|:B8B4|d8B4|B6 A2E4|A8G4|B4A4G4|D4E4F4|G4G4F4|1E8B4:|2E12]|
E8D4|E8D4|E8D4|G4G4F4|G12]|

